assets/datacamp/mono.svg

<svg viewBox="0 0 24 24" xmlns="http://www.w3.org/2000/svg"><path d="m12.946 18.151v-5.239l8.263-4.712-2.009-1.152-6.254 3.567v-5.255c0-.356-.192-.689-.5-.866l-7.524-4.317a1.434 1.434 0 0 0 -1.455.044 1.438 1.438 0 0 0 -.676 1.224v14.777a1.44 1.44 0 0 0 2.129 1.268l6.032-3.44v4.683a1 1 0 0 0 .504.867l7.73 4.4 2.01-1.152zm-1.993-12.213v5.814l-6.168 3.518v-12.87l6.168 3.539z"/></svg>

<svg xmlns="http://www.w3.org/2000/svg" viewBox="0 0 24 24"><path d="M12.946 18.151v-5.239L21.209 8.2 19.2 7.048l-6.254 3.567V5.36c0-.356-.192-.689-.5-.866L4.922.177a1.43 1.43 0 0 0-1.455.044 1.44 1.44 0 0 0-.676 1.224v14.777A1.44 1.44 0 0 0 4.92 17.49l6.032-3.44v4.683a1 1 0 0 0 .504.867l7.73 4.4 2.01-1.152zM10.953 5.938v5.814L4.785 15.27V2.4l6.168 3.539z"/></svg>
